X:1
T:Finuola, the Gem of the Roe
M:3/4
L:1/4
K:D
 D/2E/2| F A B| A F D| E D D| D2 F/2G/2| A B c| d c B| A d F| E2F/2-G/2|\
 A B c| d c B| A d F| E2 D/2E/2| F E D| F A,3/2 B,/2| D F B| A2 F/2G/2|\
 F E D| F A,3/2 A,/2| B, D D| D2||
